X:1
T:Spirited Away - Reprise
T:Spirited Away - Reprise
T:Joe Hisaishi arr. Andrew Wang 
T:ふたたび 
C:Joe Hisaishi arr. Andrew Wang
%%score 1 { ( 2 4 ) | ( 3 5 ) }
L:1/8
Q:1/4=100
M:3/4
K:G
V:1 treble nm="Oboe"
V:2 treble nm="Piano"
V:4 treble 
V:3 bass 
V:5 bass 
V:1
"^Andante" z6 | z6 |!pp!"^espressivo" (G2 d3 G | F2 d3) d |!<(! (e2 d2 c2)!<)! | %5
!p!!>(! d4!>)!!ppp!!<(! (ef)!<)! |!pp!!>(! g2 f2 e2!>)! |!ppp!!<(! d2 g2!<)!!pp! (GA | B3) (e BG | %9
 A4)!<(! (BA)!<)! |!mp! (G2 d3 G | F2 d3) d |!<(! (e2 d2 c2)!<)! |!mf!!>(! d4!>)!!p!!<(! (ef)!<)! | %14
!mp!!>(! g2 f2 e2!>)! |!p!!<(! d2 g2!<)!!mp! B2 | c2 (EF) (BA) |!>(! G6!>)! |"^A" z6 | z6 | z6 | %21
 z6 | z6 | z6 | z6 | z6 | z6 | z6 |!mf!"^B" (G2 d3 G | F2 d3) d |!<(! (e2 d2 c2)!<)! | %31
!f!!>(! d6-!>)! |!ppp!!<(! d4 (ef)!<)! |!f! g2 g2 (fa) | g4 a2 | b2 c'2 (ba) | g6 | %37
!f!!>(! (fe ^dc BF!>)! ||[K:E]"^C"!ppp! E) z z4 | z6 | z6 | z6 | z6 | z6 | z6 | z4!<(! (gf)!<)! | %46
!f! e2 b3 e | d2 b3 b | c'2 b2 a2 | b4 (cd) | e2 d2 c2 | B2 e2 g2 | a2 (cd) (gf) |!>(! e6!>)! | %54
"^D" z6 | z6 | z6 | z6 | z6 | z6 | z6 | z6 | z6 |!ppp! z4!<(! (7:4:3(f3/2=ga!<)! || %64
[K:G]"^E"!mp! b4) (ag) | f2 e2 (7:4:3(e3/2fg | a4) (g=f) | e2!>(! d4!>)! ||[K:C]"^F" z6 | z6 | z6 | %71
[M:4/4] z8 |[M:3/4]!p!!<(! ([A,A]/[B,B]/[Cc]/[Dd]/) (B,/C/D/E/) (D/E/F/G/) | %73
 (F/G/A/B/) (A/B/c/d/ e/f/g/a/)!<)! |"^G" !^!c'/(c/d/e/ f/e/f/g/ a/g/a/c'/) | %75
 !^!b/(d/e/f/ g/f/g/a/ b/d'/c'/b/) | !^!a/(d/e/f/ e/f/g/a/ b/c'/b/a/) | %77
 !^!g/(f/e/d/ e/f/g/a/ b/c'/b/c'/) | !^!d'/(e/f/g/ a/b/a/b/ c'/d'/c'/d'/) | %79
 (!>!e'/d'/c'/b/ a/g/f/e/ d/c/d/e/) | (f/g/f/e/) (d/c/B/A/) (^G/A/B/G/) | A2 z!<(! c eg!<)! | %82
!ff! (b3 c') a2 | g4 c2 | g6 |!>(! ^f6-!>)! |!ppp! f6 |"^H" z6 | z6 | z6 | z6 | z6 | z6 | z6 | z6 | %95
 z6 | z6 | z6 | z6 | z6 | z6 | z6 | z6 | z6 | z6 | z6 | z6 | z6 | z6 | z6 | z6 | z6 | z6 | %113
!ppp!!<(! _A6- | A6 | _B6- | B6 | c6 | d6!<)! ||[K:G]"^I"!f! (G2 d3 G | F2 d3) d | %121
!<(! (e2 d2 c2)!<)! |!mf!!>(! d4!>)!!p!!<(! (ef)!<)! |!mp!!>(! g2 f2 e2!>)! | %124
!p!!<(! d2 g2!<)!!mp! b2 | c'2 (ef) (ba) |!>(! g6!>)! |"^J" z2!p!"^smoothly*" (D2 A2 | B2 G2 D2 | %129
 C2) (E2 A2 | d2 B2 G2 |!>(! F6)!>)! | z6 | z6 | z6 | z6 | z6 |!ff!"^K" (G2 d3 G | F2 d3) d | %139
!<(! (e2 d2 c2)!<)! |!mf!!>(! d4!>)!!p!!<(! (ef)!<)! |!ff! !>!g2 !>!g2 fa | %142
[Q:1/4=92]"^Rall." !>!g2 !>!g2 !>!a2 |[Q:1/4=84]"^Grand"!fff! !>!b2 !>!c'2 !>!b!>!a | %144
[Q:1/4=71]"^Adagio"!>(! g6- | g6!>)! |!ppp!"^L" z6 |!<(! a6- | %148
"_*Note: from bars 128-132, the tone of the oboe\nshould be as smooth and pure as possible, like\nthat of a horn.\n" a6!<)! | %149
!f! !^!a2 z4 |] %150
V:2
!ppp! z2"_dolce" [B,D]2 [B,D]2 | z2 [B,D]2 [B,D]2 | z2 [B,D]2 [B,D]2 | z2 [B,D]2 [B,D]2 | %4
 z2 [CE]2 [CE]2 | z2 [B,D]2 [B,D]2 | z2 [CE]2 [CE]2 | z2 [B,D]2 [B,D]2 | z2 [^CE]2 [CE]2 | %9
 z2!<(! G2 F2!<)! |!p! z2 !arpeggio!!>![B,DG]2 [B,DG]2 | z2 !arpeggio!!>![B,DF]2 [B,DF]2 | %12
 z2 !arpeggio!!>![CEG]2 [CEG]2 | z2 !arpeggio!!>![B,DF]2 [B,DF]2 | %14
 z2 !arpeggio!!>![B,EG]2 [B,EG]2 | z2 !arpeggio!!>![B,EG]2 z2 | z2 !>![A,D]2 z2 | %17
 z2 z!mf!"^solo" ([Dd] [Gg][Bb] | [Aa]2 [Aa]3 d/B/- | [Bb]4-) [Bb]([Bb] | %20
 [cec']2 [cec']2 [Bfb][cgc'] | [dfd']4-) [dfd']([dfd'] | [d^ad'][^cf^c'] [cfc']2 [dd'][ee'] | %23
 [ebe']2)!<(! [dd']2 ([dd'][ee']!<)! |!f! !arpeggio!!>![=fbd'=f']2 [ee']2 [dd']2) | %25
 ([c^gc']2 [Bb]2) ([cc'][dd'] | (!arpeggio!!>![eae']2) [dd']2 [cc']2) | %27
!>(! (!arpeggio!!>![Bfb]2 [_Be_b]2 [A^da]2)!>)! |[K:bass]!mp! (G,,D, G,B, DB,) | (B,,D, F,B, DB,) | %30
 (C,E, G,C EC) | (G,,D, G,B, DB,) |!<(! z2 [B,,D,G,]2 z2!<)! |[K:treble]!f! B,G, [EGB]G [^DFB]F | %34
 [DGB]G !>![dgb]G [^CEA]A, | [CEG]A, [A,CE]C [DFA]2 | !arpeggio![G,B,DG]6 | %37
!mp!!<(! ([FB^df][EBe] [^DFBd][CEc] [B,DFB][F,B,DF]!<)! ||[K:E]!f! [E,E]2) [B,B]3 [E,E] | %39
 [D,D]2 [B,B]3 [B,B] | [Cc]2 [B,B]2 [A,A]2 | [B,B]4 [Cc][Dd] | [Ee]2 [Dd]2 [Cc]2 | %43
 [B,B]2 [Ee]2 EF | G3 [Cc] [G,G][E,E] | [F,F]4!>(! GF!>)! |!mf! E2 ([eg][df] [ca][Bg]) | %47
 D2 ([Bd][Ac] [GB][FA]) | C2 ([ce][Bd] [df][ce]) | B,2 ([df][ce] [cf][dg]) | [ea]2 ([eg]^^f [ca]g | %51
 .[Bd]).[Ac] .[GB].[FA] .[EG].[DF] | [F,A,C]4 GF | E3!<(! [Cc] [Dd][Ee]!<)! | %54
!f! [Ff]2 [Ff]3 [B,B] | [Gg]4- [Gg][Gg] | [Aca]2 [Aca]2 [GBg][Aca] | [Bdb]4- [Bdb][Bgb] | %58
 [Bgb][^A^^f^a] [Afa]2 [Bb][cc'] | [c^ac']2 [Bgb]2 [Bb][cc'] | [=db=d']2 [cc']2 [Bb]2 | %61
 [Ac^ea]2 [Gg]2 [Aa][Bb] | [cfc']2 [Bb]2 [Aa]2 |!>(! [GBdg]2 [=G=g]2 [Ff]2!>)! || %64
[K:G]!p! (!>!e'b ae) (!>!e'b) | (!>!e'b ae) (!>!e'b) | (!>!e'b ae) (!>!e'b) | %67
 (!>!e'b _a=f)!<(! (3(dcB!<)! ||[K:C]!mp! c2) g3 c | B2 g3 g | [ca]2 g2 f2 | %71
[M:4/4]!f! !>![Gg]2 z2 !^![D,D]!^![A,A] !^![G,G]2 | %72
[M:3/4]!ff! !^![A,A]!^![A,A]/!^![A,A]/!ff! !^![Ee]!^![Dd]- [Dd]2 |!p!!<(! !///-![DF]3 [Ad]3!<)! | %74
[K:bass]!ff! !>![C,C]2 !>![G,G]3 !>![C,C] | !>![B,,B,]2 !>![G,G]3 !>![G,G] | [A,A]2 [G,G]2 [F,F]2 | %77
 [G,G]2- [G,G]3 [E,E] | [F,F]2 [E,E]2 [D,D]2 | [E,E]2- [E,E]3 [A,,A,] | [D,D]2 [C,C]2 [B,,B,]2 | %81
 [C,C]6[K:treble] |!f! (f'/e'/d'/c'/ b/a/g/f/ e/d/c/B/) | (c/d/e/f/ g/e/f/g/ a/b/c'/d'/) | %84
!8va(! (e'/d'/a'/g'/ ^f'/e'/d'/c'/ e'/d'/c'/b/)!8va)! |!>(! (a/g/^f/e/ d/c/B/A/ G/^F/E/D/-!>)! | %86
 D6) |!p! z6 | z4 z [gd'] | [c'g']2 [b^f']2 [gd']2- | [gd']6 | z6 | c'g [c'g']2 [b^f']2 | [gd']6 | %94
 z6 | [c'g']6- | [c'g']2 [_bf']4- | [bf']6 | (!>![A,A][Ee] [Dd][Aa] [Ee][Dd]) | %99
 (!>![A,A][Ee] [Dd][Aa] [Ee][Dd]) | (!>![A,A][Ee] [Dd][Aa] [Ee][Dd]) | %101
!mp! (!>![A,A][Ee] [Dd][Aa] [Ee][Dd]) | (!>![A,A][Ee] [Dd][Aa] [Ee][Dd]) | %103
 (!>![A,A][Ee] [Dd][Aa] [Ee][Dd]) | (!>![Cc][Gg] [Ff][cc'] [Gg][Ff]) | %105
 (!>![Cc][Gg] [Ff][cc'] [Gg][Ff]) | (!>![Cc][Gg] [Ff][cc'] [Gg][Ff]) | %107
 (!>![Cc][Gg] [Ff][cc'] [Gg][Ff]) | (!>![Cc][Gg] [Ff][cc'] [Gg][Ff]) | %109
 (!>![Cc][Gg] [Ff][cc'] [Gg][Ff]) | (!>![Cc][Gg] [Ff][cc'] [Gg][Ff]) | %111
 (!>![Cc][Gg] [Ff][cc'] [Gg][Ff]) | (!>![Cc][Gg] [Ff][cc'] [Gg][Ff]) | %113
!<(! (!>![Cc][Gg] [Ff][cc'] [Gg][Ff]) | (!>![Cc][Gg] [Ff][cc'] [Gg][Ff]) | %115
 (!>![Cc][Gg] [Ff][cc'] [Gg][Ff]) | (!>![Cc][Gg] [Ff][cc'] [Gg][Ff]) | %117
 (!>![CEAc][Gg] [Ff][cc'] [Gg][Ff]) | (!>![Dd][Aa] [Gg][dd'] [Aa][Gg])!<)! ||[K:G] (GB dg dB) | %120
 (FB df dB) | (Gc eg ec) | (GB df dB) | (GB eg eB) | (GB df dB) | (Ac eg af) | %126
 g3!f! ([Dd] [Gg][Bb] | [Aa]2 [Aa]3 d/B/- | [Bb]4-) [Bb]([Bb] | [cec']2 [cec']2 [Bfb][cgc'] | %130
 [dfd']4-) [dfd']([dfd'] | [d^ad'][^cf^c'] [cfc']2 [dd'][ee'] | %132
 [ebe']2)!<(! [dd']2 ([dd'][ee']!<)! |!f! !arpeggio!!>![=fbd'=f']2 [ee']2 [dd']2) | %134
 ([c^gc']2 [Bb]2) ([cc'][dd'] | (!arpeggio!!>![eae']2) [dd']2 [cc']2) | %136
!<(! (!arpeggio!!>![Bfb]2 [_Be_b]2 [A^da]2)!<)! |!f! G2 ([gb][fa] [ec'][db]) | %138
 F2 ([df][ce] [Bd][Ac]) | E2 ([eg][df] [fa][eg]) |!<(! D2 ([fa][eg] [ea][fb])!<)! | %141
!ff! [eg]2 [gb]^a [_ec']b |!fff! [Dd]2!8va(! !>![gbd'g']2!8va)! [Ee]2 | [GBeg]4 [FAdf]2 | %144
!>(! [EGBdg]6 | !tenuto![_EGBdf]6!>)! |!pp! !arpeggio![gbd'f'a']6 |!ppp!!<(! (!///-![fa]3 [Bd]3 | %148
 !///-![fa]3 [Bd]3)!<)! |!fff! !^![Bdfa]2 z4 |] %150
V:3
!ped! G,6!ped-up! |!ped! G,6!ped-up! |!ped! G,,6!ped-up! |!ped! B,,6!ped-up! |!ped! C,6!ped-up! | %5
!ped! B,,6!ped-up! |!ped! C,6!ped-up! |!ped! B,,6!ped-up! |!ped! A,,6!ped-up! |!ped! D,6!ped-up! | %10
!ped! [G,,G,]6!ped-up! |!ped! [B,,B,]6!ped-up! |!ped! [C,C]6!ped-up! | %13
!ped! [B,,B,]4 [D,D]2!ped-up! |!ped! [E,E]6!ped-up! |!ped! [B,,B,]3 [E,E]3!ped-up! | %16
!ped! [A,,A,]4 [D,A,D]2!ped-up! |!ped! [G,,G,]6!ped-up! |!ped! (D,,A,, G,D, F,D,)!ped-up! | %19
!ped! (G,,D, A,D, B,D,)!ped-up! |!ped! (G,,E, CE, CE,)!ped-up! |!ped! (G,,D, G,D, B,G,)!ped-up! | %22
!ped! (F,,^C, ^A,F, ^CA,)!ped-up! |!ped! (B,,F, B,,F,, D,,^C,,)!ped-up! | %24
!ped! (B,,,D,, =F,,B,, D,=F,)!ped-up! |!ped! (E,,^G,, B,,D, E,^G,)!ped-up! | %26
!ped! (A,,,E,, A,,E, A,C)!ped-up! |!ped! (D,,A,, D,F, A,F,)!ped-up! |!ped! G,,,6!ped-up! | %29
!ped! B,,,6!ped-up! |!ped! C,,6!ped-up! |!ped! G,,,6!ped-up! | %32
!ped! [G,,G,]4 [G,,G,][F,,F,]!ped-up! | %33
!ped! [E,,G,,B,,E,]2 [E,,G,,B,,E,]2 [^D,,F,,B,,^D,]2!ped-up! | %34
!ped! [D,,G,,B,,D,]4 [^C,,E,,A,,^C,]2!ped-up! | %35
!ped! [C,,G,,C,]2 [A,,,E,,A,,]2 [D,,A,,D,]2!ped-up! |!ped! ([G,,,G,,]B,, D,G, D,B,,)!ped-up! | %37
!ped! !////-!F,,3 F,3!ped-up! ||[K:E]!ped! E,,6!ped-up! |!ped! [F,,F,]6!ped-up! | %40
!ped! [A,,A,]6!ped-up! |!ped! [E,,E,]6!ped-up! |!ped! [A,,A,]6!ped-up! |!ped! [G,,G,]6!ped-up! | %44
!ped! G,6!ped-up! |!ped! [B,,B,]6!ped-up! |!ped! [E,,G,,B,,]2 [E,G,B,]2 [E,G,B,]2!ped-up! | %47
!ped! [D,,F,,B,,]2 [D,F,B,]2 [D,F,B,]2!ped-up! |!ped! [G,,C,E,]2 [G,CE]2 [G,CE]2!ped-up! | %49
!ped! [G,,E,]2 [G,B,E]2 [G,B,E]2!ped-up! |!ped! [F,,A,,C,]2 [F,A,E]2 [F,A,E]2!ped-up! | %51
!ped! [G,,B,,E,]2 [G,B,E]2 [G,B,]2!ped-up! |!ped! [C,,F,,A,,]2 [A,,C,F,]2 [D,F,B,]2!ped-up! | %53
!ped! [G,,B,,E,G,]6!ped-up! |!ped! ([B,,E,]B, EB, DB,)!ped-up! | %55
!ped! (E,,B,, G,B,, G,B,,)!ped-up! |!ped! (E,,C, A,C, A,C,)!ped-up! | %57
!ped! (E,,B,, G,E GB,)!ped-up! |!ped! z ^A,, D,^^F, D,A,,!ped-up! |!ped! z B,, D,G, D,B,,!ped-up! | %60
!ped! z A,, C,F, C,A,,!ped-up! |!ped! z A,, C,^E, C,A,,!ped-up! |!ped! z A,, C,F, C,A,,!ped-up! | %63
!ped! z F,, B,,D, B,,F,,!ped-up! ||[K:G][K:treble]!ped! [E,G,B,D]6!ped-up! | %65
!ped! [E,G,A,^C]6!ped-up! |!ped! [D,=F,A,C]6!ped-up! |!ped! [^E,^G,B,D]6!ped-up! || %68
[K:C][K:bass] C,,2 [G,CE]2 [G,CE]2 | E,,2 [G,B,D]2 [G,B,D]2 | F,,2 [F,A,C]2 [F,A,C]2 | %71
[M:4/4] z2 !>![G,,,G,,]6 |[M:3/4] A,,/B,,/C,/D,/!p!!ped!!<(! !///-!G,,2 G,2 | %73
 !///-!G,,3 G,3!ped-up!!<)! |!f! (!tenuto!C,,2 .[E,,G,,]2) .[E,,G,,C,]2 | %75
 (!tenuto!E,,2 .[G,,B,,]2) .[G,,B,,E,]2 | (!tenuto!F,,2 .[A,,C,]2) .[A,,C,F,]2 | %77
 (!tenuto!E,,2 .[G,,B,,]2) .[G,,B,,E,]2 | (!tenuto!D,,2 .[A,,D,]2) .[A,,D,F,]2 | %79
 (!tenuto!C,,2 .[A,,C,]2) .[A,,C,E,]2 | (!tenuto!B,,,2 .[F,,B,,]2) .[F,,B,,D,]2 | %81
!<(! A,,,.[A,,C,] .[C,E,].[A,,C,] .[E,A,]2!<)! | %82
!ped!!8vb(! !>![F,,,F,,]2 !>![F,,,F,,]2 !>![F,,,F,,]2!ped-up! | %83
!ped! !>![E,,,E,,]2 !>![E,,,E,,]2 !>![E,,,E,,]2!ped-up! | %84
!ped! !>![D,,,D,,]2 !>![D,,,D,,]2 !>![D,,,D,,]2!ped-up! |!ped! [D,,,D,,]2 [D,,,D,,]2 [D,,,D,,]2 | %86
 [D,,,D,,]6!8vb)!!ped-up! |[K:treble]!ped! (Ae da ed)!ped-up! |!ped! (Ae da ed)!ped-up! | %89
!ped! (Ae da ed)!ped-up! |!ped! (Ae da ed)!ped-up! |!ped! (Ae da ed)!ped-up! | %92
!ped! (Ae da ed)!ped-up! |!ped! (Ae da ed)!ped-up! |!ped! (Ae da ed)!ped-up! | %95
!ped! (Ae da ed)!ped-up! |!ped! (Ae da ed)!ped-up! |!ped! (Ae da e!-(!d)!ped-up! | %98
[K:bass]!ped! !>!!-)![F,CE]6!ped-up! |!ped! .[E,G,B,E]6!ped-up! |!ped! z6!ped-up! | %101
!ped! !>![F,,A,,E,A,]6!ped-up! |!ped! .[G,,B,,E,A,]6!ped-up! |!ped! z6!ped-up! | %104
!ped! !>![F,,_A,,C,G,]6!ped-up! |!ped! .[G,,_B,,D,G,]6!ped-up! |!ped! z6!ped-up! | %107
!ped! !>![_A,,C,F,_A,]6!ped-up! |!ped! .[G,,_B,,D,G,]6!ped-up! |!ped! z6!ped-up! | %110
!ped! [_B,,,_D,,F,,]6!ped-up! |!ped! .[C,,_E,,F,,]6!ped-up! |!ped! z6!ped-up! | %113
!ped! !>![_B,,_D,F,_A,]6- | [B,,D,F,A,]6!ped-up! |!ped! !>![C,_E,G,_B,]6- | [C,E,G,B,]6!ped-up! | %117
!ped! !>![C,,E,,A,,C,]6!ped-up! |!ped! !>![D,,^F,,A,,D,]6!ped-up! || %119
[K:G]!ped! z2 [G,B,DG]2 [G,B,DG]2!ped-up! |!ped! z2 [F,B,DF]2 [F,B,DF]2!ped-up! | %121
!ped! z2 [G,CEG]2 [G,CEG]2!ped-up! |!ped! z2 [F,B,DF]2 [F,B,DF]2!ped-up! | %123
!ped! z2 [G,B,EG]2 [G,B,EG]2!ped-up! |!ped! z2 [G,B,EG]2 [G,B,EG]2!ped-up! | %125
!ped! z2 [A,CEG]2 z2!ped-up! |!ped! !>![G,,,G,,]6!ped-up! |!ped! (D,,A,, G,D, F,D,)!ped-up! | %128
!ped! (G,,D, A,D, B,D,)!ped-up! |!ped! (G,,E, CE, CE,)!ped-up! |!ped! (G,,D, G,D, B,G,)!ped-up! | %131
!ped! (F,,^C, ^A,F, ^CA,)!ped-up! |!ped! (B,,F, B,,F,, D,,^C,,)!ped-up! | %133
!ped! (B,,,D,, =F,,B,, D,=F,)!ped-up! |!ped! (E,,^G,, B,,D, E,^G,)!ped-up! | %135
!ped! (A,,,E,, A,,E, A,C)!ped-up! |!ped! (D,,A,, D,F, A,F,)!ped-up! | %137
!ped! z2 [G,B,DG]2 [G,B,DG]2!ped-up! |!ped! z2 [F,B,DF]2 [F,B,DF]2!ped-up! | %139
!ped! z2 [G,CEG]2 [G,CEG]2!ped-up! |!ped! z2 [F,B,DF]2 [F,B,DF]2!ped-up! | %141
!ped! z2 [G,B,EG]2 !>![_E,,,_E,,]2!ped-up! |!ped! !>![D,,,D,,]4 !>![^C,,,^C,,]2!ped-up! | %143
!ped! !>![C,,,C,,]2 !>![A,,,,A,,,]2 !>![D,,,D,,]2!ped-up! |!ped! !>![C,,,C,,]6!ped-up! | %145
!ped! [A,,,A,,]6!ped-up! |[K:treble] !arpeggio![DGd]6 |[K:bass] (!///-!G,,,3 G,,3 | %148
 !///-!G,,,3 G,,3) | !^![G,,,G,,]2 z4 |] %150
V:4
 x6 | x6 | x6 | x6 | x6 | x6 | x6 | x6 | x6 | x2 C2 B,A, | x6 | x6 | x6 | x6 | x6 | x6 | x6 | x6 | %18
 x6 | x6 | x6 | x6 | x6 | x6 | x6 | x6 | x6 | x6 |[K:bass] x6 | x6 | x6 | x6 | x6 |[K:treble] x6 | %34
 x6 | x6 | x6 | x6 ||[K:E] x6 | x6 | x6 | x6 | x6 | x6 | x6 | x6 | x6 | x6 | x6 | x6 | x6 | x6 | %52
 x6 | x6 | x6 | x6 | x6 | x6 | x6 | x6 | x6 | x6 | x6 | x6 ||[K:G] x6 | x6 | x6 | x6 ||[K:C] x6 | %69
 x6 | x6 |[M:4/4] x8 |[M:3/4] x6 | x6 |[K:bass] x6 | x6 | x6 | x6 | x6 | x6 | x6 | %81
 z2 z[K:treble]!>(! [Cc] [Ee][Gg]!>)! | x6 | x6 |!8va(! x6!8va)! | x6 | x6 | x6 | x6 | x6 | x6 | %91
 x6 | x6 | x6 | x6 | x6 | x6 | x6 | x6 | x6 | x6 | x6 | x6 | x6 | x6 | x6 | x6 | x6 | x6 | x6 | %110
 x6 | x6 | x6 | x6 | x6 | x6 | x6 | x6 | x6 ||[K:G] x6 | x6 | x6 | x6 | x6 | x6 | x6 | x6 | x6 | %128
 x6 | x6 | x6 | x6 | x6 | x6 | x6 | x6 | x6 | x6 | x6 | x6 | x6 | x6 | x2!8va(! x2!8va)! x2 | x6 | %144
 x6 | x6 | x6 | x6 | x6 | x6 |] %150
V:5
 x6 | x6 | x6 | x6 | x6 | x6 | x6 | x6 | x6 | x6 | x6 | x6 | x6 | x6 | x6 | x6 | x6 | x6 | x6 | %19
 x6 | x6 | x6 | x6 | x6 | x6 | x6 | x6 | x6 | z2 [B,,D,]2 [B,,D,G,]2 | z2 [B,,D,]2 [B,,D,F,]2 | %30
 z2 [C,E,]2 [C,E,G,]2 | z2 [B,,D,]2 [B,,D,G,]2 | x6 | x6 | x6 | x6 | x6 | x6 || %38
[K:E] z2 (F,E,D,C,) | (B,,^A,,B,,C,D,E,) | (F,E,D,C,D,B,,) | (G,,B,,E,G,E,G,) | (F,G,F,G,A,F,) | %43
 (G,F,E,F,G,E,) | (F,,E,,G,,C,G,,E,,) | (D,,E,,[F,,F,][G,,G,][A,,A,][B,,B,]) | x6 | x6 | x6 | x6 | %50
 x6 | x6 | x6 | x6 | x6 | x6 | x6 | x6 | [^^F,,,^^F,,]6 | [G,,,G,,]6 | [F,,,F,,]6 | [C,,C,]6 | %62
 [F,,,F,,]6 | [B,,,B,,]6 ||[K:G][K:treble] x6 | x6 | x6 | x6 ||[K:C][K:bass] x6 | x6 | x6 | %71
[M:4/4] x8 |[M:3/4] x6 | x6 | x6 | x6 | x6 | x6 | x6 | x6 | x6 | x6 |!8vb(! x6 | x6 | x6 | x6 | %86
 x6!8vb)! |[K:treble] x6 | x6 | x6 | x6 | x6 | x6 | x6 | x6 | x6 | x6 | x6 |[K:bass] x6 | x6 | x6 | %101
 x6 | x6 | x6 | x6 | x6 | x6 | x6 | x6 | x6 | x6 | x6 | x6 | x6 | x6 | x6 | x6 | x6 | x6 || %119
[K:G] !>![G,,,D,,G,,]6 | [B,,,B,,]6 | [C,,C,]6 | [B,,,B,,]6 | [E,,E,]6 | [B,,,B,,]6 | %125
 [A,,,A,,]4 [D,,D,]2 | x6 | x6 | x6 | x6 | x6 | x6 | x6 | x6 | x6 | x6 | x6 | !>![G,,,D,,G,,]6 | %138
 !>![B,,,B,,]6 | !>![C,,C,]6 | !>![B,,,B,,]6 | !>![E,,,E,,]4 x2 | x6 | x6 | x6 | x6 | %146
[K:treble] x6 |[K:bass] x6 | x6 | x6 |] %150

